X: 354
T: Nazad Nazad Kalino Mome
O: Macedonia
F: http://www.youtube.com/watch?v=Pg2mhunskgI
F: http://www.youtube.com/watch?v=0AWbal8Y4I8
F: http://www.youtube.com/watch?v=736b9LmDlxc
M: 7/8
L: 1/8
Q: 1/4=144
K: Em^G
%%MIDI program 42 Cello
%%MIDI bassprog 32 Acoustic Bass
%%MIDI gchord fzzfzfz
"E"E3 "G#m"G2A2|"A"Bc2 A4|c3 "B"B2A2|AB2 "E"E4|\
"E"E3 G2A2|"A"c3 "B"B4|"A"cA2 "B"B4-|B3-B4|:
"C"c3 c2c2|"A"cB2 A4|"C"c3 B2A2|AB2 "G#m"G4|\
GAB G2E2|"D"=F2E"E"D2E2-|E7:|



